resources/svg/home-6-line.svg

<svg fill="currentColor" viewBox="0 0 24 24" xmlns="http://www.w3.org/2000/svg"><path d="M21 19.9997C21 20.552 20.5523 20.9997 20 20.9997H4C3.44772 20.9997 3 20.552 3 19.9997V9.48882C3 9.18023 3.14247 8.88893 3.38606 8.69947L11.3861 2.47725C11.7472 2.19639 12.2528 2.19639 12.6139 2.47725L20.6139 8.69947C20.8575 8.88893 21 9.18023 21 9.48882V19.9997ZM19 18.9997V9.97791L12 4.53346L5 9.97791V18.9997H19ZM7 14.9997H17V16.9997H7V14.9997Z"/></svg>

<svg xmlns="http://www.w3.org/2000/svg" viewBox="0 0 24 24" fill="currentColor">
    <g>
        <path fill="none" d="M0 0h24v24H0z"/>
        <path d="M21 20a1 1 0 0 1-1 1H4a1 1 0 0 1-1-1V9.49a1 1 0 0 1 .386-.79l8-6.222a1 1 0 0 1 1.228 0l8 6.222a1 1 0 0 1 .386.79V20zm-2-1V9.978l-7-5.444-7 5.444V19h14zM7 15h10v2H7v-2z"/>
    </g>
</svg>
